!!!OTL: Luthers Lied auf die zwei Maertyrer von Bruessel
!!!ARE: Europa, Mitteleuropa, Deutschland
!!!SCT: A0386
!!!YEM: Copyright 1995, estate of Helmut Schaffrath.
**kern
*ICvox
*Ivox
*M4/1
*k[b-]
*F:
{2ff
=1
1ff
1ff
1ee
1dd
=2
1ff
1dd
1cc
2r}
{2a
=3
1cc
1dd
1cc
1f
=4
1a
1g
1f
2r}
{2ff
=5
1ff
1ff
1ee
1dd
=6
1ff
1dd
1cc
2r}
{2a
=7
1cc
1dd
1cc
1f
=8
1a
1g
1f
2r}
{2a
=9
1a
1a
1b-
1a
=10
1a
1a
1f
2r}
{2cc
=11
1ee
1ff
1gg
2ff
2ee
=12
2ee
4dd
4cc
1dd
1cc
2r}
{2cc
=13
1ee
1cc
1dd
1cc
=14
1cc
1cc
1a
2r}
{2f
=15
1a
1b-
1cc
2b-
2a
=16
2a
4g
4f
1g
1f
2r}
{2cc
=17
2cc
2cc
2dd
2ee
0ff
=18
1gg
0f
1r}
==
!!!AGN: Romanze, Ballade, Lied, religioeses Lied
!! Luther 1523.
!!!ONB: ESAC (Essen Associative Code) Database: ALTDEU
!!!AMT: simple quadruple
!!!AIN: vox
!!!EED: Helmut Schaffrath
!!!EEV: 1.0
*-
